X:34
T:Bourree ronde de Saint-Severe
Z:Jack Campin, 2014
F:http://www.campin.me.uk/Music/YoupNannetteD.abc
S:p35, p1000224.jpg
M:3/8
L:1/16
Q:1/4=120
K:G
Bc|d2d2e2|d4e2|dedcBA|B2G2\
Bc|d2d2e2|d4e2|dedcBA|G4:|
FG|A2A2B2|A4d2|dedcBA|B2G2\
FG|A2A2B2|A4d2|dedcBA|G4:|

% ===========================================================================
% ==  (c) Jack Campin                            http://www.campin.me.uk/  ==
% ==      11 Third Street, Newtongrange, Midlothian EH22 4PU, Scotland     ==
% ===========================================================================